cursors/src/svg/dnd-no-drop.svg

<?xml version="1.0" encoding="UTF-8" standalone="no"?>
<svg
   xmlns:dc="http://purl.org/dc/elements/1.1/"
   xmlns:cc="http://creativecommons.org/ns#"
   xmlns:rdf="http://www.w3.org/1999/02/22-rdf-syntax-ns#"
   xmlns:svg="http://www.w3.org/2000/svg"
   xmlns="http://www.w3.org/2000/svg"
   xmlns:sodipodi="http://sodipodi.sourceforge.net/DTD/sodipodi-0.dtd"
   xmlns:inkscape="http://www.inkscape.org/namespaces/inkscape"
   width="32"
   height="32"
   version="1.1"
   viewBox="0 0 32 32"
   id="svg32"
   sodipodi:docname="dnd-no-drop.svg"
   inkscape:version="0.92.4 5da689c313, 2019-01-14">
  <metadata
     id="metadata36">
    <rdf:RDF>
      <cc:Work
         rdf:about="">
        <dc:format>image/svg+xml</dc:format>
        <dc:type
           rdf:resource="http://purl.org/dc/dcmitype/StillImage" />
      </cc:Work>
    </rdf:RDF>
  </metadata>
  <sodipodi:namedview
     pagecolor="#ffffff"
     bordercolor="#666666"
     borderopacity="1"
     objecttolerance="10"
     gridtolerance="10"
     guidetolerance="10"
     inkscape:pageopacity="0"
     inkscape:pageshadow="2"
     inkscape:window-width="1366"
     inkscape:window-height="705"
     id="namedview34"
     showgrid="false"
     inkscape:zoom="20.981875"
     inkscape:cx="23.082485"
     inkscape:cy="8.6636658"
     inkscape:window-x="0"
     inkscape:window-y="34"
     inkscape:window-maximized="1"
     inkscape:current-layer="svg32"
     inkscape:snap-bbox="true"
     inkscape:snap-bbox-edge-midpoints="true"
     inkscape:bbox-nodes="true">
    <inkscape:grid
       type="xygrid"
       id="grid844" />
  </sodipodi:namedview>
  <defs
     id="defs8">
    <filter
       id="b"
       x="-.222"
       y="-.222"
       width="1.444"
       height="1.444"
       color-interpolation-filters="sRGB">
      <feGaussianBlur
         stdDeviation="1.2025"
         id="feGaussianBlur2" />
    </filter>
    <filter
       id="a"
       x="-.24009"
       y="-.23991"
       width="1.4802"
       height="1.4798"
       color-interpolation-filters="sRGB">
      <feGaussianBlur
         stdDeviation="1.6005988"
         id="feGaussianBlur5" />
    </filter>
  </defs>
  <path
     d="m 17,7.9622 c -0.90007,0 -1.549,0.6784 -1.793,1.5078 C 14.86347,9.1932 14.46749,8.9622 14,8.9622 c -1.0907,0 -2,0.9093 -2,2 v 4.4199 c -0.30892,-0.1966 -0.61278,-0.4199 -1,-0.4199 -1.0907,0 -2,0.9093 -2,2 v 5 c 0,0.2716 0.054057,0.5369 0.15625,0.7793 0.10327,0.245 0.25593,0.4616 0.43164,0.6367 0.35929,0.3582 0.86342,0.584 1.4121,0.584 h 2.8789 l -0.14062,-0.01 c 0.17273,0.024 0.37991,0.034 0.60742,0 l -0.16602,0.014 h 7.8203 c 1.3333,0 2.2753,-0.8142 2.6445,-1.5527 0.36926,-0.7425 0.35547,-1.4513 0.35547,-1.4513 v -8 c 0,-1.0907 -0.9093,-2 -2,-2 -0.38722,0 -0.69108,0.2233 -1,0.4199 v -0.4199 c 0,-1.0907 -0.9093,-2 -2,-2 -0.46752,0 -0.8635,0.231 -1.207,0.5078 -0.24395,-0.8294 -0.8929,-1.5078 -1.793,-1.5078 z"
     dominant-baseline="auto"
     style="color:#000000;font-variant-ligatures:normal;font-variant-position:normal;font-variant-caps:normal;font-variant-numeric:normal;font-variant-alternates:normal;font-feature-settings:normal;text-indent:0;text-decoration:none;text-decoration-line:none;text-decoration-style:solid;text-decoration-color:#000000;text-transform:none;text-orientation:mixed;dominant-baseline:auto;white-space:normal;shape-padding:0;opacity:0.35;isolation:auto;mix-blend-mode:normal;solid-color:#000000;filter:url(#a);color-rendering:auto;image-rendering:auto;shape-rendering:auto;enable-background:new"
     id="path10"
     inkscape:connector-curvature="0" />
  <path
     d="m 16,6.9622 c -0.90007,0 -1.549,0.6784 -1.793,1.5078 C 13.86347,8.1932 13.46749,7.9622 13,7.9622 c -1.0907,0 -2,0.9093 -2,2 v 4.4199 c -0.30892,-0.1966 -0.61278,-0.4199 -1,-0.4199 -1.0907,0 -2,0.9093 -2,2 v 5 c 0,0.2716 0.054057,0.5369 0.15625,0.7793 0.10327,0.245 0.25593,0.4616 0.43164,0.6367 0.35929,0.3582 0.86342,0.584 1.4121,0.584 h 2.8789 l -0.14062,-0.01 c 0.17273,0.024 0.37991,0.034 0.60742,0 l -0.16602,0.014 h 7.8203 c 1.3333,0 2.2753,-0.8142 2.6445,-1.5527 0.36926,-0.7425 0.35547,-1.4513 0.35547,-1.4513 v -8 c 0,-1.0907 -0.9093,-2 -2,-2 -0.38722,0 -0.69108,0.2233 -1,0.4199 V 9.9622 c 0,-1.0907 -0.9093,-2 -2,-2 -0.46752,0 -0.8635,0.231 -1.207,0.5078 -0.24395,-0.8294 -0.8929,-1.5078 -1.793,-1.5078 z m -3,5 a 1.0001,1.0001 0 0 0 0.88867,0.9941 l 1,0.1114 a 1.0001,1.0001 0 0 0 1.1113,-0.9942 v 0.2207 a 1.0001,1.0001 0 0 0 0.88867,0.9942 l 1,0.1113 a 1.0001,1.0001 0 0 0 1.1113,-0.9941 v 0.2226 a 1.0001,1.0001 0 0 0 0.88867,0.9942 l 1,0.1113 a 1.0001,1.0001 0 0 0 1.1113,-0.9942 v 7.2227 c 0,0 -0.01379,0.2912 -0.14453,0.5527 -0.13074,0.2615 -0.1888,0.4473 -0.85547,0.4473 h -7.8203 a 1.0001,1.0001 0 0 0 -0.16602,0.014 c 0.02554,0 0.03093,-4e-4 0.0059,0 a 1.0001,1.0001 0 0 0 -0.14062,-0.01 h -2.8789 v -5 a 1.0001,1.0001 0 0 0 1,1 h 1 a 1.0001,1.0001 0 0 0 1,-1 v -3 z"
     dominant-baseline="auto"
     style="color:#000000;font-variant-ligatures:normal;font-variant-position:normal;font-variant-caps:normal;font-variant-numeric:normal;font-variant-alternates:normal;font-feature-settings:normal;text-indent:0;text-decoration:none;text-decoration-line:none;text-decoration-style:solid;text-decoration-color:#000000;text-transform:none;text-orientation:mixed;dominant-baseline:auto;white-space:normal;shape-padding:0;isolation:auto;mix-blend-mode:normal;solid-color:#000000;fill:#ffffff;color-rendering:auto;image-rendering:auto;shape-rendering:auto;enable-background:new"
     id="path12"
     inkscape:connector-curvature="0" />
  <path
     d="m 16,7.9622 c -0.554,0 -1,0.446 -1,1 v 3.1113 l -1,-0.11133 v -2 c 0,-0.554 -0.446,-1 -1,-1 -0.554,0 -1,0.446 -1,1 v 6 h -1 c 0,-0.554 -0.446,-1 -1,-1 -0.554,0 -1,0.446 -1,1 v 5 c 0,0.1385 0.027656,0.27091 0.078125,0.39062 0.050682,0.12022 0.12394,0.2258 0.21484,0.31641 0.18066,0.18008 0.43062,0.29297 0.70703,0.29297 h 2.8789 c 0.0989,0.014 0.1998,0.017 0.30078,0 h 7.8203 c 2,0 2,-2 2,-2 v -8 c 0,-0.554 -0.446,-1 -1,-1 -0.554,0 -1,0.446 -1,1 v 0.77734 l -1,-0.11133 v -2.666 c 0,-0.554 -0.446,-1 -1,-1 -0.554,0 -1,0.446 -1,1 v 2.4434 l -1,-0.11133 v -3.332 c 0,-0.554 -0.446,-1 -1,-1 z"
     id="path14"
     style="fill:#282A33;enable-background:new"
     inkscape:connector-curvature="0" />
  <path
     d="m 11,13.9622 v 4 h 1 v -4 z"
     id="path16"
     inkscape:connector-curvature="0"
     style="fill:#ffffff;enable-background:new" />
  <rect
     x="4"
     y="3.9622245"
     width="24"
     height="24"
     id="rect18"
     style="opacity:0.2;fill:none" />
  <path
     d="m 23.468,17 c -3.5898,0 -6.5,2.9102 -6.5,6.5 0,3.5899 2.9102,6.5 6.5,6.5 3.5898,0 6.5,-2.9101 6.5,-6.5 0,-3.5898 -2.9102,-6.5 -6.5,-6.5 z"
     style="color:#000000;text-indent:0;text-decoration:none;text-decoration-line:none;text-transform:none;opacity:0.2;filter:url(#b)"
     id="path22"
     inkscape:connector-curvature="0" />
  <circle
     cx="23.5"
     cy="22.5"
     r="6.5"
     id="circle24"
     style="fill:#ed1515;fill-opacity:1" />
  <path
     style="fill:#ffffff;fill-opacity:1;stroke-width:0.84615386"
     d="m 19.610913,18.610913 a 5.5,5.5 0 0 0 0,7.778174 5.5,5.5 0 0 0 7.778174,0 5.5,5.5 0 0 0 0,-7.778174 5.5,5.5 0 0 0 -7.778174,0 z m 0.707106,0.707106 a 4.5,4.5 0 0 1 5.98693,-0.330075 l -6.318386,6.318386 a 4.5,4.5 0 0 1 0.331456,-5.988311 z m 0.377032,6.694037 6.318386,-6.318386 a 4.5,4.5 0 0 1 -0.331456,5.988311 4.5,4.5 0 0 1 -5.98693,0.330075 z"
     id="circle851"
     inkscape:connector-curvature="0" />
</svg>

<?xml version="1.0" encoding="UTF-8" standalone="no"?>
<!DOCTYPE svg PUBLIC "-//W3C//DTD SVG 1.1//EN" "http://www.w3.org/Graphics/SVG/1.1/DTD/svg11.dtd">
<svg width="100%" height="100%" viewBox="0 0 32 32" version="1.1" xmlns="http://www.w3.org/2000/svg" xmlns:xlink="http://www.w3.org/1999/xlink" xml:space="preserve" xmlns:serif="http://www.serif.com/" style="fill-rule:evenodd;clip-rule:evenodd;stroke-linejoin:round;stroke-miterlimit:2;">
    <use id="path10" xlink:href="#_Image1" x="4.198" y="3.16" width="26px" height="26px"/>
    <path id="path12" d="M16,6.962C15.1,6.962 14.451,7.641 14.207,8.47C13.863,8.193 13.467,7.962 13,7.962C11.909,7.962 11,8.872 11,9.962L11,14.382C10.691,14.185 10.387,13.962 10,13.962C8.909,13.962 8,14.871 8,15.962L8,20.962C8,21.234 8.054,21.499 8.156,21.741C8.26,21.987 8.412,22.203 8.588,22.378C8.947,22.736 9.451,22.962 10,22.962L12.879,22.962L12.738,22.952C12.911,22.976 13.118,22.986 13.346,22.952L13.18,22.966L21,22.966C22.333,22.966 23.275,22.152 23.644,21.413C24.014,20.671 24,19.962 24,19.962L24,11.962C24,10.871 23.091,9.962 22,9.962C21.613,9.962 21.309,10.185 21,10.382L21,9.962C21,8.872 20.091,7.962 19,7.962C18.532,7.962 18.136,8.193 17.793,8.47C17.549,7.641 16.9,6.962 16,6.962L16,6.962ZM13,11.962C13,12.469 13.385,12.9 13.889,12.956L14.889,13.068C14.926,13.072 14.963,13.074 15,13.074C15.549,13.074 16,12.622 16,12.074C16,12.074 16,12.074 16,12.073L16,12.294C16,12.801 16.385,13.232 16.889,13.288L17.889,13.4C17.926,13.404 17.963,13.406 18,13.406C18.548,13.406 19,12.954 19,12.406C19,12.406 19,12.406 19,12.406L19,12.628C19,13.135 19.385,13.566 19.889,13.622L20.889,13.734C20.926,13.738 20.963,13.74 21,13.74C21.548,13.74 22,13.288 22,12.74C22,12.74 22,12.74 22,12.74L22,19.962C22,19.962 21.986,20.253 21.855,20.515C21.725,20.776 21.667,20.962 21,20.962L13.18,20.962C13.124,20.962 13.068,20.967 13.014,20.976C13.039,20.976 13.045,20.976 13.019,20.976C12.973,20.97 12.926,20.966 12.879,20.966L10,20.966L10,15.966C10,16.515 10.451,16.966 11,16.966L12,16.966C12.549,16.966 13,16.515 13,15.966L13,12.966L13,11.962Z" style="fill:white;fill-rule:nonzero;"/>
    <path id="path14" d="M16,7.962C15.446,7.962 15,8.408 15,8.962L15,12.073L14,11.962L14,9.962C14,9.408 13.554,8.962 13,8.962C12.446,8.962 12,9.408 12,9.962L12,15.962L11,15.962C11,15.408 10.554,14.962 10,14.962C9.446,14.962 9,15.408 9,15.962L9,20.962C9,21.101 9.028,21.233 9.078,21.353C9.129,21.473 9.202,21.579 9.293,21.669C9.474,21.849 9.724,21.962 10,21.962L12.879,21.962C12.978,21.976 13.079,21.979 13.18,21.962L21,21.962C23,21.962 23,19.962 23,19.962L23,11.962C23,11.408 22.554,10.962 22,10.962C21.446,10.962 21,11.408 21,11.962L21,12.74L20,12.628L20,9.962C20,9.408 19.554,8.962 19,8.962C18.446,8.962 18,9.408 18,9.962L18,12.406L17,12.294L17,8.962C17,8.408 16.554,7.962 16,7.962L16,7.962Z" style="fill-rule:nonzero;"/>
    <rect id="path16" x="11" y="13.962" width="1" height="4" style="fill:white;fill-rule:nonzero;"/>
    <rect id="rect18" x="4" y="3.962" width="24" height="24" style="fill:none;"/>
    <use id="path22" xlink:href="#_Image2" x="13.361" y="13.393" width="19px" height="19px"/>
    <circle id="circle24" cx="23.5" cy="22.5" r="6.5" style="fill:rgb(237,21,21);"/>
    <path id="circle851" d="M19.611,18.611C17.477,20.744 17.477,24.256 19.611,26.389C21.744,28.523 25.256,28.523 27.389,26.389C29.523,24.256 29.523,20.744 27.389,18.611C25.256,16.477 21.744,16.477 19.611,18.611ZM20.318,19.318C21.931,17.709 24.525,17.566 26.305,18.988L19.987,25.306C18.564,23.526 18.708,20.931 20.318,19.318ZM20.695,26.012L27.013,19.694C28.436,21.474 28.292,24.069 26.682,25.682C25.069,27.291 22.475,27.434 20.695,26.012Z" style="fill:white;fill-rule:nonzero;"/>
    <defs>
        <image id="_Image1" width="26px" height="26px" xlink:href="data:image/png;base64,iVBORw0KGgoAAAANSUhEUgAAABoAAAAaCAYAAACpSkzOAAAACXBIWXMAAA7EAAAOxAGVKw4bAAABuklEQVRIiaWW226EMAxEh8DCbv//X1uWWx/WAxNjU6RGsogg8YntZEiD+61J3m93Jnc3nftnBkmhGUgdNwCK9PltM1ulnwIjEB0VsdasyPfVbJE+oSdYFpE6f5h1AmMkC4DZGYEVzIM0VS2AHsBg1htQQTOAt9lkz9kWsCgsS10xpwOAF4AvAE8BQaIZxYqAOQYANgVpsVtbhIJeFlXrQAOAHxvPGmqdlix1TNvDHD8F9hDQZiDWTyG6URoFRdH0OGrEvge1YgqfzIoBT6nLIFw1V85WENdMdygYkd9pTBl3G7d36yLfxFHnTM/cKXVFotEt3UcT3dMfaj92X5GmjduaxhVWE6U1F7Y3r2GqBF4RMvW+1fxm0BRkafDi+ZeFoKvfwXrx3gusV/MKpKtYUIvmhrhGdMpzQ2E9ATuc5YIH7o1P+ngwoxoxogmH3hGoKr5H5NWYArkKMKqTzhsBfAtMo6pAjOYtkBm1jmURMQsjPgLL38VejiiiEYdmjTj/WT0oSrlGtKeOaWDx2Z8CiMJ8+hZn1WbQif4iomdIxyhE+3Qc3h18OvztJxoTNXUaXk4yJ/+Rm/Bu9wsxzcvaFEsQ3AAAAABJRU5ErkJggg=="/>
        <image id="_Image2" width="19px" height="19px" xlink:href="data:image/png;base64,iVBORw0KGgoAAAANSUhEUgAAABMAAAATCAYAAAByUDbMAAAACXBIWXMAAA7EAAAOxAGVKw4bAAABBUlEQVQ4jY2UW5LCMAwE20TZcP/bQkjCjyZoB8Guq6ach9wljWUPPo/x5R/A4R/iC2SYBJDeoA7TwoupwnbTCRwNaEpFajLYlnqkBD2iAQUwAz85R2ZHLtqAFbjnmlWZ1TIFm4ErsDSwI7PRt8HLwz0MFJnRksC5KVM21LLPMqvpKlHqPFNGKlneDaUvmBuvhVVd3AQM34DaFt5jlGdvn1Ez64aD/hx1l1w7fbf7/zMuLKgaKs8uBlOTKvbcTW3xf45RBalpbzmvwF5h3eygh4Fu+b5RmrYGK0uV3Z0AAe+8zufh267ywlTPpsqUt1sHc++mMvsVJMCva6jrI+/4T5fj20X5BJVofFCo2FNSAAAAAElFTkSuQmCC"/>
    </defs>
</svg>
